X: 421
Q: "Slow with much Expression"
M: 6/8
L: 1/8
K: Bb
V: 1
[|\
!f!f2{=e}f !p!d<Bz | e2{=e}g f3 | !f!f2~f !p!d<Bz | c2f B>cd/e/ |\
!f!{g}f2~f !p!d<Bz | e2{=e}g f>ga/b/ | f2~f d<Bz | c2{=e}f B3 ||
!f!c2~c !p!A<Fz | {e}d2B {A}G3 | e2e d<fz | g>ab/d/ {d}c3 |\
!f!f2~f d<fz | ~g(f/=e/).f/.a/ Hb2a/g/ | !p!{g}f2~f d<Bz | c2{=e}f {A}B3 |]
V: 2 clef=bass middle=d
[|\


